austria/municipalities/70343.svg

<?xml version="1.0" encoding="UTF-8"?>
<!DOCTYPE svg PUBLIC "-//W3C//DTD SVG 1.1//EN" "http://www.w3.org/Graphics/SVG/1.1/DTD/svg11.dtd">
<svg xmlns="http://www.w3.org/2000/svg" version="1.1" width="166px" height="192px" style="shape-rendering:geometricPrecision; text-rendering:geometricPrecision; image-rendering:optimizeQuality; fill-rule:evenodd; clip-rule:evenodd" xmlns:xlink="http://www.w3.org/1999/xlink">
<g><path style="opacity:1" fill="#040404" d="M -0.5,-0.5 C 54.8333,-0.5 110.167,-0.5 165.5,-0.5C 165.5,39.8333 165.5,80.1667 165.5,120.5C 156.707,159.627 132.707,183.294 93.5,191.5C 86.1667,191.5 78.8333,191.5 71.5,191.5C 30.4674,182.802 6.46741,157.802 -0.5,116.5C -0.5,77.5 -0.5,38.5 -0.5,-0.5 Z"/></g>
<g><path style="opacity:1" fill="#faf9f9" d="M 66.5,12.5 C 72.6019,11.7327 78.2686,12.8993 83.5,16C 87.5222,21.0197 91.8555,25.6864 96.5,30C 103.343,31.8394 107.843,29.3394 110,22.5C 110.346,31.8194 105.846,35.9861 96.5,35C 91.5869,32.3817 87.2535,29.0484 83.5,25C 76.2032,20.7996 70.3698,22.2996 66,29.5C 64.6457,35.5836 62.979,41.5836 61,47.5C 59.6233,49.7538 58.1233,51.9205 56.5,54C 49.7056,55.4147 43.3723,54.0814 37.5,50C 40.9393,47.8614 44.106,45.3614 47,42.5C 49.6667,35.1667 52.3333,27.8333 55,20.5C 58.1496,16.6893 61.983,14.0226 66.5,12.5 Z"/></g>
<g><path style="opacity:1" fill="#3f3d3b" d="M 11.5,20.5 C 12.4345,21.5676 12.7678,22.901 12.5,24.5C 10.6682,40.4502 10.1682,56.4502 11,72.5C 11.8283,79.8213 14.3283,86.488 18.5,92.5C 17.6446,93.293 16.8113,92.9597 16,91.5C 10.7706,80.6354 8.27058,69.1354 8.5,57C 9.2131,44.8017 10.2131,32.635 11.5,20.5 Z"/></g>
<g><path style="opacity:1" fill="#185b2a" d="M 103.5,49.5 C 122.833,49.5 142.167,49.5 161.5,49.5C 161.667,72.5024 161.5,95.5024 161,118.5C 152.457,162.042 125.957,185.042 81.5,187.5C 47.4477,185.992 23.4477,169.825 9.5,139C 33.8402,138.833 58.1735,138.333 82.5,137.5C 89.8164,108.235 96.8164,78.9013 103.5,49.5 Z"/></g>
<g><path style="opacity:1" fill="#f8f7f7" d="M 11.5,20.5 C 10.2131,32.635 9.2131,44.8017 8.5,57C 8.27058,69.1354 10.7706,80.6354 16,91.5C 16.8113,92.9597 17.6446,93.293 18.5,92.5C 14.3283,86.488 11.8283,79.8213 11,72.5C 10.1682,56.4502 10.6682,40.4502 12.5,24.5C 15.9986,33.1872 21.3319,40.6872 28.5,47C 24.6487,54.7219 22.3154,62.8886 21.5,71.5C 20.3244,77.6833 20.3244,84.0166 21.5,90.5C 22.1589,92.1379 22.8256,93.8045 23.5,95.5C 22.7376,95.9106 21.7376,96.0773 20.5,96C 22.7372,99.4884 24.4038,99.3217 25.5,95.5C 26.8587,95.5566 26.8587,93.8899 25.5,90.5C 25.5,86.1667 25.5,81.8333 25.5,77.5C 26.0853,67.8239 28.252,58.4905 32,49.5C 36.5037,52.6683 41.337,55.1683 46.5,57C 41.8633,60.7941 38.1966,65.2941 35.5,70.5C 30.0522,78.6437 28.2189,87.6437 30,97.5C 30.3333,94.1667 30.6667,90.8333 31,87.5C 31.3333,90.5 31.6667,93.5 32,96.5C 32.7189,92.8546 33.2189,89.1879 33.5,85.5C 34.3382,85.1583 34.6716,84.4916 34.5,83.5C 35.851,78.4642 38.0176,73.7975 41,69.5C 44.7039,65.9643 48.2039,62.2976 51.5,58.5C 53.1368,57.7822 54.8034,57.6155 56.5,58C 59.4736,61.1278 61.8069,64.6278 63.5,68.5C 46.9434,71.888 37.4434,81.888 35,98.5C 38.7209,82.947 48.2209,73.2804 63.5,69.5C 64.7562,69.4614 65.7562,69.9614 66.5,71C 52.6599,72.172 43.4932,79.3386 39,92.5C 38.2636,95.8189 38.9303,98.8189 41,101.5C 41.6667,100.833 42.3333,100.167 43,99.5C 43.2163,101.384 43.883,103.051 45,104.5C 45.3333,103.5 45.6667,102.5 46,101.5C 48.4366,104.149 49.77,103.483 50,99.5C 50.8373,101.007 52.0039,101.507 53.5,101C 54.7433,99.8455 55.7433,98.5122 56.5,97C 51.8588,98.4816 47.8588,97.4816 44.5,94C 50.4663,95.3573 55.133,93.3573 58.5,88C 55.5377,87.9099 53.2043,89.2432 51.5,92C 50.8333,92.6667 50.1667,92.6667 49.5,92C 51.527,89.973 53.527,87.973 55.5,86C 60.3142,87.051 64.9808,86.551 69.5,84.5C 70.0967,84.2648 70.4301,83.7648 70.5,83C 68.5324,77.607 66.1991,77.7737 63.5,83.5C 62.1526,84.0283 60.8193,84.195 59.5,84C 61.8333,81.6667 64.1667,79.3333 66.5,77C 74.2821,77.1269 78.9487,73.4603 80.5,66C 82.8473,65.6664 85.1806,65.833 87.5,66.5C 87.6602,68.1992 87.4935,69.8659 87,71.5C 84.0937,74.0373 80.927,76.204 77.5,78C 75.3799,80.4087 73.3799,82.9087 71.5,85.5C 71.8333,85.8333 72.1667,86.1667 72.5,86.5C 78.7547,83.4586 84.588,79.7919 90,75.5C 91.3654,76.5929 91.6987,77.9262 91,79.5C 84.9519,82.528 79.1186,86.028 73.5,90C 72.9447,95.5544 69.9447,98.8877 64.5,100C 60.987,107.848 55.6536,114.181 48.5,119C 40.018,122.083 32.518,120.583 26,114.5C 25.2751,117.377 25.7751,120.043 27.5,122.5C 29.3885,123.604 31.0552,124.937 32.5,126.5C 32.3333,126.833 32.1667,127.167 32,127.5C 25.3876,122.378 22.3876,124.045 23,132.5C 21.9039,130.111 21.0706,127.611 20.5,125C 17.9724,125.02 15.6391,124.687 13.5,124C 15.2194,122.943 17.0528,122.11 19,121.5C 19.2623,117.766 18.7623,114.099 17.5,110.5C 17.3898,108.626 18.0564,107.126 19.5,106C 18.0039,105.493 16.8373,105.993 16,107.5C 12.6964,101.614 11.8631,95.4475 13.5,89C 10.4083,82.8866 8.57495,76.3866 8,69.5C 7.33333,60.1667 7.33333,50.8333 8,41.5C 8.37253,33.0113 9.5392,26.0113 11.5,20.5 Z"/></g>
<g><path style="opacity:1" fill="#f0efef" d="M 23.5,88.5 C 23.6716,89.4916 23.3382,90.1583 22.5,90.5C 22.5,85.1667 22.5,79.8333 22.5,74.5C 23.6036,64.021 26.4369,54.021 31,44.5C 31.1667,45.1667 31.3333,45.8333 31.5,46.5C 25.6494,59.9008 22.9827,73.9008 23.5,88.5 Z"/></g>
<g><path style="opacity:1" fill="#eae9e8" d="M 51.5,58.5 C 43.3348,63.6636 37.3348,70.6636 33.5,79.5C 33.9402,76.6202 34.9402,73.9535 36.5,71.5C 39.8695,65.6214 44.2028,60.4548 49.5,56C 53.6029,54.965 54.2695,55.7984 51.5,58.5 Z"/></g>
<g><path style="opacity:1" fill="#292827" d="M 35.5,70.5 C 35.5,71.1667 35.8333,71.5 36.5,71.5C 34.9402,73.9535 33.9402,76.6202 33.5,79.5C 31.9119,81.5273 31.4119,83.8606 32,86.5C 32.3333,85.8333 32.6667,85.1667 33,84.5C 33.3988,84.7284 33.5654,85.0618 33.5,85.5C 33.2189,89.1879 32.7189,92.8546 32,96.5C 31.6667,93.5 31.3333,90.5 31,87.5C 30.6667,90.8333 30.3333,94.1667 30,97.5C 28.2189,87.6437 30.0522,78.6437 35.5,70.5 Z"/></g>
<g><path style="opacity:1" fill="#323130" d="M 51.5,58.5 C 48.2039,62.2976 44.7039,65.9643 41,69.5C 38.0176,73.7975 35.851,78.4642 34.5,83.5C 33.5655,82.4324 33.2322,81.099 33.5,79.5C 37.3348,70.6636 43.3348,63.6636 51.5,58.5 Z"/></g>
<g><path style="opacity:1" fill="#282826" d="M 63.5,68.5 C 63.5,68.8333 63.5,69.1667 63.5,69.5C 48.2209,73.2804 38.7209,82.947 35,98.5C 37.4434,81.888 46.9434,71.888 63.5,68.5 Z"/></g>
<g><path style="opacity:1" fill="#d3d1cf" d="M 79.5,79.5 C 83.8707,76.5465 88.0374,73.2131 92,69.5C 91.8047,71.745 90.6381,73.5784 88.5,75C 85.7568,77.0383 82.7568,78.5383 79.5,79.5 Z"/></g>
<g><path style="opacity:1" fill="#b4b1af" d="M 79.5,79.5 C 78.7456,81.4459 77.4122,82.2793 75.5,82C 76.4709,80.5187 77.8042,79.6854 79.5,79.5 Z"/></g>
<g><path style="opacity:1" fill="#9b9998" d="M 33.5,79.5 C 33.2322,81.099 33.5655,82.4324 34.5,83.5C 34.6716,84.4916 34.3382,85.1583 33.5,85.5C 33.5654,85.0618 33.3988,84.7284 33,84.5C 32.6667,85.1667 32.3333,85.8333 32,86.5C 31.4119,83.8606 31.9119,81.5273 33.5,79.5 Z"/></g>
<g><path style="opacity:1" fill="#757471" d="M 69.5,84.5 C 69.189,83.5222 68.5223,82.8555 67.5,82.5C 66.4495,83.8848 65.1161,84.8848 63.5,85.5C 62.537,85.0302 62.537,84.3635 63.5,83.5C 66.1991,77.7737 68.5324,77.607 70.5,83C 70.4301,83.7648 70.0967,84.2648 69.5,84.5 Z"/></g>
<g><path style="opacity:1" fill="#3f3e3b" d="M 21.5,71.5 C 21.2627,72.791 21.596,73.791 22.5,74.5C 22.5,79.8333 22.5,85.1667 22.5,90.5C 22.1667,90.5 21.8333,90.5 21.5,90.5C 20.3244,84.0166 20.3244,77.6833 21.5,71.5 Z"/></g>
<g><path style="opacity:1" fill="#716e6b" d="M 25.5,77.5 C 25.5,81.8333 25.5,86.1667 25.5,90.5C 24.2801,92.0496 24.2801,93.7163 25.5,95.5C 24.4038,99.3217 22.7372,99.4884 20.5,96C 21.7376,96.0773 22.7376,95.9106 23.5,95.5C 22.8256,93.8045 22.1589,92.1379 21.5,90.5C 21.8333,90.5 22.1667,90.5 22.5,90.5C 23.3382,90.1583 23.6716,89.4916 23.5,88.5C 24.1667,84.8333 24.8333,81.1667 25.5,77.5 Z"/></g>
<g><path style="opacity:1" fill="#201f1e" d="M 25.5,90.5 C 26.8587,93.8899 26.8587,95.5566 25.5,95.5C 24.2801,93.7163 24.2801,92.0496 25.5,90.5 Z"/></g>
<g><path style="opacity:1" fill="#fdfdfd" d="M -0.5,116.5 C 6.46741,157.802 30.4674,182.802 71.5,191.5C 47.5,191.5 23.5,191.5 -0.5,191.5C -0.5,166.5 -0.5,141.5 -0.5,116.5 Z"/></g>
<g><path style="opacity:1" fill="#eae9e9" d="M 58.5,119.5 C 58.5,120.5 58.5,121.5 58.5,122.5C 56.712,122.215 55.0453,122.548 53.5,123.5C 54.7701,124.288 55.7701,125.288 56.5,126.5C 55.8501,126.804 55.1835,127.137 54.5,127.5C 51.3295,124.665 48.4962,124.998 46,128.5C 44.6796,128.201 43.1796,128.034 41.5,128C 43.4484,127.017 45.2817,125.85 47,124.5C 46.2067,121.585 47.54,119.918 51,119.5C 53.5074,120.747 56.0074,120.747 58.5,119.5 Z"/></g>
<g><path style="opacity:1" fill="#8d8a88" d="M 58.5,119.5 C 63.774,120.444 63.774,121.444 58.5,122.5C 58.5,121.5 58.5,120.5 58.5,119.5 Z"/></g>
<g><path style="opacity:1" fill="#fdfdfd" d="M 165.5,120.5 C 165.5,144.167 165.5,167.833 165.5,191.5C 141.5,191.5 117.5,191.5 93.5,191.5C 132.707,183.294 156.707,159.627 165.5,120.5 Z"/></g>
<g><path style="opacity:1" fill="#cfcccb" d="M 56.5,126.5 C 58.337,126.639 58.6704,127.306 57.5,128.5C 56.7025,128.043 56.3691,127.376 56.5,126.5 Z"/></g>
</svg>

<svg xmlns="http://www.w3.org/2000/svg" width="166" height="192" style="shape-rendering:geometricPrecision;text-rendering:geometricPrecision;image-rendering:optimizeQuality;fill-rule:evenodd;clip-rule:evenodd"><path style="opacity:1" fill="#040404" d="M-.5-.5h166v121c-8.793 39.127-32.793 62.794-72 71h-22c-41.033-8.698-65.033-33.698-72-75V-.5z"/><path style="opacity:1" fill="#faf9f9" d="M66.5 12.5c6.102-.767 11.769.4 17 3.5a130.092 130.092 0 0 0 13 14c6.843 1.84 11.343-.66 13.5-7.5.346 9.32-4.154 13.486-13.5 12.5a49.062 49.062 0 0 1-13-10c-7.297-4.2-13.13-2.7-17.5 4.5a180.02 180.02 0 0 1-5 18 69.049 69.049 0 0 1-4.5 6.5c-6.794 1.415-13.128.081-19-4a54.117 54.117 0 0 0 9.5-7.5l8-22c3.15-3.81 6.983-6.477 11.5-8z"/><path style="opacity:1" fill="#3f3d3b" d="M11.5 20.5c.934 1.068 1.268 2.401 1 4a288.917 288.917 0 0 0-1.5 48c.828 7.321 3.328 13.988 7.5 20-.855.793-1.689.46-2.5-1C10.77 80.635 8.27 69.135 8.5 57a774.873 774.873 0 0 1 3-36.5z"/><path style="opacity:1" fill="#185b2a" d="M103.5 49.5h58c.167 23.002 0 46.002-.5 69-8.543 43.542-35.043 66.542-79.5 69-34.052-1.508-58.052-17.675-72-48.5 24.34-.167 48.673-.667 73-1.5a4216.014 4216.014 0 0 0 21-88z"/><path style="opacity:1" fill="#f8f7f7" d="M11.5 20.5a774.873 774.873 0 0 0-3 36.5c-.23 12.135 2.27 23.635 7.5 34.5.811 1.46 1.645 1.793 2.5 1-4.172-6.012-6.672-12.679-7.5-20a288.917 288.917 0 0 1 1.5-48c3.499 8.687 8.832 16.187 16 22.5a69.005 69.005 0 0 0-7 24.5c-1.176 6.183-1.176 12.517 0 19 .659 1.638 1.326 3.305 2 5-.762.41-1.762.577-3 .5 2.237 3.488 3.904 3.322 5-.5 1.359.057 1.359-1.61 0-5v-13c.585-9.676 2.752-19.01 6.5-28A59.895 59.895 0 0 0 46.5 57c-4.637 3.794-8.303 8.294-11 13.5-5.448 8.144-7.281 17.144-5.5 27l1-10 1 9a93.554 93.554 0 0 0 1.5-11c.838-.342 1.172-1.008 1-2a44.688 44.688 0 0 1 6.5-14 162.087 162.087 0 0 0 10.5-11c1.637-.718 3.303-.885 5-.5 2.974 3.128 5.307 6.628 7 10.5-16.557 3.388-26.057 13.388-28.5 30 3.72-15.553 13.22-25.22 28.5-29 1.256-.039 2.256.461 3 1.5-13.84 1.172-23.007 8.339-27.5 21.5-.736 3.319-.07 6.319 2 9l2-2c.216 1.884.883 3.551 2 5l1-3c2.437 2.649 3.77 1.983 4-2 .837 1.507 2.004 2.007 3.5 1.5a13.912 13.912 0 0 0 3-4c-4.641 1.482-8.641.482-12-3 5.966 1.357 10.633-.643 14-6-2.962-.09-5.296 1.243-7 4-.667.667-1.333.667-2 0l6-6c4.814 1.051 9.48.551 14-1.5.597-.235.93-.735 1-1.5-1.968-5.393-4.3-5.226-7 .5-1.347.528-2.68.695-4 .5l7-7c7.782.127 12.449-3.54 14-11a16.603 16.603 0 0 1 7 .5c.16 1.7-.007 3.366-.5 5a48.928 48.928 0 0 1-9.5 6.5 102.001 102.001 0 0 0-6 7.5l1 1a94.774 94.774 0 0 0 17.5-11c1.365 1.093 1.699 2.426 1 4A134.922 134.922 0 0 0 73.5 90c-.555 5.554-3.555 8.888-9 10-3.513 7.848-8.846 14.181-16 19-8.482 3.083-15.982 1.583-22.5-4.5-.725 2.877-.225 5.543 1.5 8a21.62 21.62 0 0 1 5 4l-.5 1c-6.612-5.122-9.612-3.455-9 5a36.737 36.737 0 0 1-2.5-7.5c-2.528.02-4.86-.313-7-1a24.369 24.369 0 0 1 5.5-2.5c.262-3.734-.238-7.401-1.5-11-.11-1.874.556-3.374 2-4.5-1.496-.507-2.663-.007-3.5 1.5-3.304-5.886-4.137-12.052-2.5-18.5-3.092-6.113-4.925-12.613-5.5-19.5a196.249 196.249 0 0 1 0-28c.373-8.489 1.54-15.489 3.5-21z"/><path style="opacity:1" fill="#f0efef" d="M23.5 88.5c.172.992-.162 1.658-1 2v-16a90.956 90.956 0 0 1 8.5-30l.5 2c-5.85 13.4-8.517 27.4-8 42z"/><path style="opacity:1" fill="#eae9e8" d="M51.5 58.5c-8.165 5.164-14.165 12.164-18 21 .44-2.88 1.44-5.546 3-8 3.37-5.879 7.703-11.045 13-15.5 4.103-1.035 4.77-.202 2 2.5z"/><path style="opacity:1" fill="#292827" d="M35.5 70.5c0 .667.333 1 1 1a20.536 20.536 0 0 0-3 8c-1.588 2.027-2.088 4.36-1.5 7l1-2c.399.228.565.562.5 1a93.554 93.554 0 0 1-1.5 11l-1-9-1 10c-1.781-9.856.052-18.856 5.5-27z"/><path style="opacity:1" fill="#323130" d="M51.5 58.5a162.087 162.087 0 0 1-10.5 11 44.688 44.688 0 0 0-6.5 14c-.934-1.068-1.268-2.401-1-4 3.835-8.836 9.835-15.836 18-21z"/><path style="opacity:1" fill="#282826" d="M63.5 68.5v1c-15.28 3.78-24.78 13.447-28.5 29 2.443-16.612 11.943-26.612 28.5-30z"/><path style="opacity:1" fill="#d3d1cf" d="M79.5 79.5a100.87 100.87 0 0 0 12.5-10c-.195 2.245-1.362 4.078-3.5 5.5a28.522 28.522 0 0 1-9 4.5z"/><path style="opacity:1" fill="#b4b1af" d="M79.5 79.5c-.754 1.946-2.088 2.78-4 2.5.97-1.481 2.304-2.315 4-2.5z"/><path style="opacity:1" fill="#9b9998" d="M33.5 79.5c-.268 1.599.066 2.932 1 4 .172.992-.162 1.658-1 2 .065-.438-.101-.772-.5-1l-1 2c-.588-2.64-.088-4.973 1.5-7z"/><path style="opacity:1" fill="#757471" d="M69.5 84.5c-.311-.978-.978-1.644-2-2a8.905 8.905 0 0 1-4 3c-.963-.47-.963-1.136 0-2 2.7-5.726 5.032-5.893 7-.5-.07.765-.403 1.265-1 1.5z"/><path style="opacity:1" fill="#3f3e3b" d="M21.5 71.5c-.237 1.291.096 2.291 1 3v16h-1c-1.176-6.483-1.176-12.817 0-19z"/><path style="opacity:1" fill="#716e6b" d="M25.5 77.5v13c-1.22 1.55-1.22 3.216 0 5-1.096 3.822-2.763 3.988-5 .5 1.238.077 2.238-.09 3-.5-.674-1.695-1.341-3.362-2-5h1c.838-.342 1.172-1.008 1-2l2-11z"/><path style="opacity:1" fill="#201f1e" d="M25.5 90.5c1.359 3.39 1.359 5.057 0 5-1.22-1.784-1.22-3.45 0-5z"/><path style="opacity:1" fill="#fdfdfd" d="M-.5 116.5c6.967 41.302 30.967 66.302 72 75h-72v-75z"/><path style="opacity:1" fill="#eae9e9" d="M58.5 119.5v3c-1.788-.285-3.455.048-5 1 1.27.788 2.27 1.788 3 3-.65.304-1.316.637-2 1-3.17-2.835-6.004-2.502-8.5 1-1.32-.299-2.82-.466-4.5-.5a32.787 32.787 0 0 0 5.5-3.5c-.793-2.915.54-4.582 4-5 2.507 1.247 5.007 1.247 7.5 0z"/><path style="opacity:1" fill="#8d8a88" d="M58.5 119.5c5.274.944 5.274 1.944 0 3v-3z"/><path style="opacity:1" fill="#fdfdfd" d="M165.5 120.5v71h-72c39.207-8.206 63.207-31.873 72-71z"/><path style="opacity:1" fill="#cfcccb" d="M56.5 126.5c1.837.139 2.17.806 1 2-.797-.457-1.13-1.124-1-2z"/></svg>
